icons/mail-volume-fill.svg

<svg viewBox="0 0 24 24" fill="currentColor" xmlns="http://www.w3.org/2000/svg">
    <path d="M20 14.5V23.5L16.667 21H14V17H16.667L20 14.5ZM21 3C21.5523 3 22 3.44772 22 4L22.0009 14.5286C20.9393 13.578 19.5371 13 18 13C14.6863 13 12 15.6863 12 19C12 19.7015 12.1204 20.3749 12.3417 21.0007L3 21C2.44772 21 2 20.5523 2 20V4C2 3.44772 2.44772 3 3 3H21ZM21 17C22.1046 17 23 17.8954 23 19C23 20.0544 22.1841 20.9182 21.1493 20.9945L21 21V17ZM5.64722 6.2377L4.35278 7.7623L12.0731 14.3171L19.6544 7.75616L18.3456 6.24384L12.06 11.682L5.64722 6.2377Z"/>
</svg>

<svg xmlns="http://www.w3.org/2000/svg" viewBox="0 0 24 24">
    <g>
        <path fill="none" d="M0 0h24v24H0z"/>
        <path d="M20 14.5v9L16.667 21H14v-4h2.667L20 14.5zM21 3a1 1 0 0 1 1 1v10.529A6 6 0 0 0 12.34 21L3.002 21a1 1 0 0 1-1-1V4a1 1 0 0 1 1-1h18zm0 14a2 2 0 0 1 .15 3.995L21 21v-4zM5.647 6.238L4.353 7.762l7.72 6.555 7.581-6.56-1.308-1.513-6.286 5.438-6.413-5.444z"/>
    </g>
</svg>
